!!!COM: John Williams
!!!OTL: Gloomy Courtship
!!!GAW: Star Wars: Episode II
!!!ODT: 2002
!!!OCL: Frank Lehman
!!!ENC: Claire Arthur
!!!ENC2: John McNamara
**kern	**harte	**harm	**altharm	**cadence	**text
*clefG2	*	*	*	*	*
*k[b-e-a-d-g-]	*k[b-e-a-d-g-]	*k[b-e-a-d-g-]	*	*	*
*D-:	*D-:	*D-:	*	*	*
*M12/8	*M12/8	*M12/8	*	*	*
*MM135	*MM135	*MM135	*	*	*
4.cc	.	.	.	.	.
=1	=1	=1	=1	=1	=1
4.dd-	E-:min7(b5)	ii/7	.	.	.
4.cc	.	.	.	.	.
4.cc	E-:min7(b5)/#4	.	.	.	.
4.e-	.	.	.	.	.
=2	=2	=2	=2	=2	=2
4.cc	C/b6	V	.	.	The harmonic language here is intensely chromatic, fluctuates between functional & nonfunctional
4.b-	.	.	.	.	.
4.b-	D-:maj6/5	Ic	.	.	.
4.d-	.	.	.	.	.
=3	=3	=3	=3	=3	=3
4.a	D:maj7(#11)	-II	.	.	.
4.g#	.	.	.	.	.
4.g#	E/b7	.	II7d/-II	.	.
4.B	.	.	.	.	.
=4	=4	=4	=4	=4	=4
4.f#	D	.	.	.	.
4.A	.	.	.	.	.
8.fnL	D-	I	.	MC	.
8.FnJ	.	.	.	//	.
20A-L	.	.	.	.	.
20d-	.	.	.	.	.
20f	.	.	.	.	.
20a-	.	.	.	.	.
20dd-J	.	.	.	.	.
=5	=5	=5	=5	=5	=5
4.ff	G:min7(b5)	ii/7	.	.	.
4.ee	.	.	.	.	.
4.ee	C:7(b5)	V7	.	.	.
4.g	.	.	.	.	.
=6	=6	=6	=6	=6	=6
4.ee	F:dim(#7)	idim7	.	.	.
4.ee-	.	.	.	.	.
4.dd	E-:maj7	.	.	.	.
4.e-	.	.	.	.	.
=7	=7	=7	=7	=7	=7
4.dd	B:min	.	.	.	.
4.cc#	.	.	.	.	.
4.cc#	F#:min	.	.	.	.
4.d-	.	.	.	.	.
=8	=8	=8	=8	=8	=8
[4.d-	B-:min9(b5)	ii/9	.	.	.
4d-]	.	.	.	.	.
8c	.	V7	.	.	.
2.c	C:7(*3,4)	.	.	.	.
.	C:7	.	.	.	.
=9	=9	=9	=9	=9	=9
1.F	F:min	i	.	PAC	.
.	.	.	.	]]	.
=	=	=	=	=	=
*-	*-	*-	*-	*-	*-
